X: 12
T: Zhengyue shiwu na yitian
L: 1/8
M: 3/4
K: D
e e d d [I:setbarnb 1]| 
BA3 | 
A d d e | 
d2d2 | 
B A F E | 
D B,D2 | 
D F E D | 
B,B,3 | 
d2e2 | 
e2d2 | 
B A F E | 
D B,D2 |]

@@@ Tune index: 8680
